X:2
T:Darach DeBrun's
M:4/4
L:1/8
C:(E Dorian. Recording is in C Dorian)
S:The Celts Rise Again, Track #6
R:reel
Z: Wosika
Z:
K:EDor
|:egfg eBB2| EBB2 efgb| afef dAA2| DFAc (3efg fd|
 egfg eBB2| EBB2 efge| fedf a3f| gefd Bee2 :||:
 bgfg eBGB| eBef b2ag| fafe dAFA| fdfg ab/2a/2gf|
 bgfg eBGB| eBef b3g| a3f g3e| gfeA Bee2  :|
